!!!!SEGMENT: pl-wtm--557--001-001_stojowski-zygmunt--romantische-stucke-op-25-1-gestandniss.krn
!!!cenid: 19xx:160
!!!COM: Stojowski, Zygmunt
!!!COM-rismID: pe41019736
!!!CDT: 1870-1946
!!!CNT: Polish
!!!GTL: Romantische Stücke Op. 25
!!!OTL: 1. Geständniss
!!!OMV: 001
!!!PDT:
!!!AGN:
!!!YEC: Copyright 2022 Narodowy Instytut Fryderyka Chopina (https://polishscores.org)
!!!YEM: License CC-BY-4.0 (https://creativecommons.org/licenses/by/4.0)
!!!SMS-siglum: PL-Wtm
!!!SMS-shelfmark: 557
!!!SMS-variant:
!!!SMS-altvar:
!!!SMS-shelfwork: 001-001 G
!!!NIFC-rismSourceID: 1001211569
!!!NIFC-rismChildID: 1001211569
!!!NIFC-islandoraID: pl-wtm:75301
!!!URL-pdf-islandora: https://repozytorium.nifc.pl/islandora/object/pl-wtm%3A75301/datastream/PDF/view
!!!URL-scan: https://polish.musicsources.pl/pl/lokalizacje/galeria/druki-muzyczne/19410/3 @EN{Scan on Polish Music Sources Website} @PL{Skany w portalu Dziedzictwo Muzyki Polskiej w otwartym dostępie}
!!!IIIF:
!!!ONB-nifc:
!!!OMD: Andantino con moto.
!!!AIN: 1 piano
!!!key: F
**kern	**fing	**kern	**fing	**dynam
*part1	*part1	*part1	*part1	*part1
*staff2	*staff2	*staff1	*staff1	*
*ICklav	*	*ICklav	*	*
*Ipiano	*	*Ipiano	*	*
*I"1.	*	*I"1.	*	*
*clefF4	*	*clefG2	*	*
*k[b-]	*	*k[b-]	*	*
*F:	*	*F:	*	*
*M6/8	*	*M6/8	*	*
=1	=1	=1	=1	=1
*ped	*	*	*	*
!!LO:TX:t=P:problem=mixed beam:global
!	!	!LO:TX:a:i:t=cantato	!	!
(<16FF/LL	.	(>[>4a/	4	p
16C/	.	.	.	.
16A/	.	.	.	.
16c>\	.	.	.	.
16f>\	.	16a/LL]	.	.
*Xped	*	*	*	*
16dd>\JJ)	.	16dd/JJ	.	.
*ped	*	*	*	*
(<16FF#X/LL	.	[>4cc/	4-5	.
16E-X/	.	.	.	.
16A/	.	.	.	.
16c>\	.	.	.	.
16e-X>\	.	16cc/LL]	.	.
16a>\JJ)	.	16a/JJ	.	.
*Xped	*	*	*	*
=2	=2	=2	=2	=2
*^	*	*	*	*
*	*^	*	*	*	*
*ped	*	*	*	*	*	*
(<16GG/LL	4.ryy	2ryy	.	[>4b-/	.	.
16D/	.	.	.	.	.	.
16G/	.	.	.	.	.	.
16B->\	.	.	.	.	.	.
16d>\	.	.	.	16b-/LL]	.	.
*Xped	*	*	*	*	*	*
16g>\JJ)	.	.	.	16g/JJ	4	.
*	*	*	*below	*	*	*
16BB-/LL	N[4BB-\	.	4	[>4d#X/	3-4	.
[<16G/	.	.	.	.	.	.
(16A>\	.	4BB-\N] 4G]	.	.	.	.
16B->\	.	.	.	.	.	.
16c>\	8ryy	.	.	16d#/LL]	.	.
!LO:N:acc=n-	!	!	!	!	!	!
16d-X>\JJ)	.	.	.	16e/JJ	2 3	.
*	*v	*v	*	*	*	*
!!LO:LB:g=original
=3	=3	=3	=3	=3	=3
*ped	*	*	*	*	*
!	!	!	!	!	!LO:HP:a
(<16AA/LL	4.ryy	.	[4f/	4	<
16F/	.	.	.	.	.
16A/	.	.	.	.	.
16Bn>\	.	.	.	.	.
16c>\	.	.	16f/LL]	.	.
*Xped	*	*	*	*	*
16a>\JJ)	.	.	16a/JJ	.	[
*ped	*	*	*	*	*
(<16BBn/LL	4BB\	.	[4a-X/	.	.
16F/	.	.	.	.	.
16A-X/	.	.	.	.	.
16dn>\	.	.	.	.	.
16e>\	8ryy	.	16a-/LL]	.	.
*Xped	*	*	*	*	*
16f>\JJ)	.	.	16f/JJ	.	.
*v	*v	*	*	*	*
=4	=4	=4	=4	=4
*ped	*	*	*	*
(<16BB-X/LL	.	4e/	.	.
16G/	.	.	.	.
16c/	.	.	.	.
16d-X>\	.	.	.	.
16e>\	.	16e/LL	.	.
*Xped	*	*	*	*
!	!	!	!	!LO:HP:a
16dd-X>\JJ)	.	16dd-X/JJ	5	>
*ped	*	*	*	*
(<16AA/LL	.	4cc/)	5	.
16E/	.	.	.	.
16A/	.	.	.	.
16c>\	.	.	.	]
16e>\	.	8r	.	.
*Xped	*	*	*	*
16a>\JJ)	.	.	4	.
=5	=5	=5	=5	=5
*ped	*	*	*	*
(<16GG#X/LL	.	([4bn/	5-4	.
16F/	.	.	.	.
16Bn/	.	.	.	.
16d>\	.	.	.	.
16f>\	.	16b/LL]	.	.
*Xped	*	*	*	*
16dd>\JJ)	.	16dd/JJ	.	.
*ped	*	*	*	*
(<16GGn/LL	.	[4cc/	4-5	.
16E/	.	.	.	.
16B-X/	.	.	.	.
16c>\	.	.	.	.
!	!	!	!	!LO:HP:a
16e>\	.	16cc/LL]	.	<
*Xped	*	*	*	*
16g#X>\JJ)	.	16g#X/JJ	3	.
!!LO:LB:g=original
=6	=6	=6	=6	=6
*ped	*	*	*	*
(<16FF#X/LL	.	[4a/	.	.
16E-X/	.	.	.	.
16A/	.	.	.	.
16c>\	.	.	.	.
16e-X>\	.	16a/LL]	.	.
*Xped	*	*	*	*
16cc>\JJ)	.	16cc/JJ	.	.
*ped	*	*	*	*
(<16FFn/LL	.	[4b-/	4-5	.
16D/	.	.	.	.
16G/	.	.	.	.
16B->\	.	.	.	.
16d>\	.	16b-/LL]	.	[
*Xped	*	*	*	*
16a>\JJ)	.	16a/JJ)	5	.
=7	=7	=7	=7	=7
*ped	*	*	*	*
16FF/LL	.	([4f/	3	.
16D-X/	.	.	.	.
16F/	.	.	.	.
16A>\	.	.	.	.
16d-X>\	.	16f/LL]	.	.
*Xped	*	*	*	*
16g>\JJ	.	16g/JJ	.	.
*ped	*	*	*	*
16EE-X/LL	.	4.a/)	.	.
16C/	.	.	.	.
16G-X/	.	.	.	.
16A>\	.	.	.	.
16c>\	.	.	.	.
*Xped	*	*	*	*
16g-X>\JJ	.	.	.	.
=8	=8	=8	=8	=8
*ped	*	*	*	*
!	!	!	!	!LO:HP:a
16DDn/LL	.	([4f/	.	>
16D/	1	.	.	.
16F/	2	.	.	.
16A>\	.	.	.	.
!	!	!LO:TX:a:i:t=poco rit.	!	!
16d>\	.	16f/LL]	.	.
*Xped	*	*	*	*
16g>\JJ	.	16g/JJ	.	.
*ped	*	*	*	*
16DD-X/LL	.	4.a-X/)	.	]
16D-X/	.	.	.	.
16F/	.	.	.	.
16Bn>\	.	.	.	.
16f>\	.	.	.	.
*Xped	*	*	*	*
16a>\JJ	.	.	.	.
!!LO:LB:g=original
=9	=9	=9	=9	=9
*ped	*	*	*	*
!LO:TX:b:i:t=simile	!	!LO:TX:a:i:t=a tempo	!	!LO:DY:t=più p
16FF/LL	.	([4an/	.	p
16C/	.	.	.	.
16A/	.	.	.	.
16c>\	.	.	.	.
16f>\	.	16a/LL]	.	.
16dd>\JJ	.	16dd/JJ	.	.
16FF#X/LL	.	[4cc/	.	.
16E-X/	.	.	.	.
16A/	.	.	.	.
16c>\	.	.	.	.
16e-X>\	.	16cc/LL]	.	.
16a>\JJ	.	16a/JJ	.	.
=10	=10	=10	=10	=10
16GG/LL	.	[4b-/	.	.
16D/	.	.	.	.
16B-/	.	.	.	.
*	*above	*	*	*
16d>\	2	.	.	.
16f>\	1	16b-/LL]	.	.
16een>\JJ	.	16een/JJ	.	.
!	!	!	!	!LO:HP:a:t=poco cresc.:ext=s
16GG#X/LL	.	[4dd/	4-5	<
16F/	.	.	.	.
16Bn/	.	.	.	.
16en>\	.	.	.	.
16f>\	.	16dd/LL]	.	.
16bn>\JJ	.	16bn/JJ	4	.
=11	=11	=11	=11	=11
16AA/LL	.	[4cc/	.	.
16F/	.	.	.	.
16c/	.	.	.	.
16f>\	2	.	.	.
16a>\	1	16cc/LL]	.	.
16aa>\JJ	.	16aa/JJ	.	.
16BBn/LL	.	[4aa-X/	4	.
16F/	.	.	.	.
16d/	.	.	.	.
16a-X>\	.	.	.	.
16dd>\	.	16aa-/LL]	.	.
16ff>\JJ	.	16ff/JJ	3	.
!!LO:LB:g=original
=12	=12	=12	=12	=12
!	!	!	!	!LO:HP:a
16BB-X/LL	.	[4ee/	5	>
16G/	.	.	.	.
16d-X/	.	.	.	.
16e>\	.	.	.	.
16g>\	.	16ee/LL]	.	.
16dd-X>\JJ	.	16dd-X/JJ	4	.
16AA/LL	.	4cc/)	5	]
16E/	.	.	.	.
16A/	.	.	.	.
16c>\	.	.	.	.
16e>\	.	8r	.	.
16cc>\JJ	.	.	.	.
=13	=13	=13	=13	=13
16AA-X/LL	.	([4dd/	4	.
16F/	.	.	.	.
16Bn/	.	.	.	.
16f>\	.	.	.	.
16bn>\	.	16dd/LL]	.	.
!	!	!	!	!LO:HP:a
16ff>\JJ	.	16ff/JJ	.	<
16GG/LL	.	[4ee/	4-5	.
16C/	.	.	.	.
16B-X/	.	.	.	.
16e>\	.	.	.	.
16b-X>\	.	16ee/LL]	.	.
16cc>\JJ	.	16cc/JJ	.	.
=14	=14	=14	=14	=14
16FF#X/LL	.	[4a/	2-4	.
16E-X/	.	.	.	.
16A/	.	.	.	.
16d>\	.	.	.	.
16e-X>\	.	16a/LL]	.	.
16cc>\JJ	.	16cc/JJ	.	[
16FFn/LL	.	[4bn/	4-5	.
16D/	.	.	.	.
16A-X/	.	.	.	.
16Bn>\	.	.	.	.
16d>\	.	16b/LL]	.	.
16a-X>\JJ	.	16a-X/JJ	.	.
!!LO:PB:g=original
=15	=15	=15	=15	=15
16EEn/LL	.	[4g/	3-5	.
16C/	.	.	.	.
16En/	.	.	.	.
16G>\	.	.	.	.
16c>\	.	16g/LL]	.	.
16an>\JJ	.	16an/JJ	.	.
16EE-X/LL	.	[4g/	.	.
16AA/	.	.	.	.
!	!	!	!	!LO:HP:a
16E-X/	.	.	.	>
16A>\	.	.	.	.
16c>\	.	16g/LL]	.	.
16a>\JJ	.	16a/JJ	.	.
=16	=16	=16	=16	=16
!	!	!LO:TX:a:i:t=poco rall.	!	!
16DD/LL	.	[4f#X/	.	.
16AA/	.	.	.	.
16D/	.	.	.	.
16A>\	.	.	.	.
16c>\	.	16f#/LL]	.	.
16g>\JJ	.	16g/JJ	.	.
16DD-X/LL	.	4.fn/)	.	]
16GG/	.	.	.	.
16D-X/	.	.	.	.
16G>\	.	.	.	.
16Bn>\	.	.	.	.
16g>\JJ	.	.	.	.
=17	=17	=17	=17	=17
!	!	!LO:TX:a:i:t=a tempo, poco a poco più animato	!	!
16CC/LL	.	[4e/	.	.
16GG/	.	.	.	.
16C/	.	.	.	.
16G>\	.	.	.	.
16c>\	.	16e/LL]	.	.
16e>\JJ	.	16e/JJ	.	.
16BBBn/LL	.	4d-X^/ 4f	.	.
16BBn/	.	.	.	.
16D-X/	.	.	.	.
16G>\	.	.	.	.
16d>\	.	8r	.	.
16f>\JJ	.	.	.	.
!!LO:LB:g=original
=18	=18	=18	=18	=18
!	!	!	!	!LO:HP:a:t=e cresc._:ext=s:ext=ud
16CC/LL	.	[4e/	.	<
16C/	.	.	.	.
16E/	.	.	.	.
16G>\	.	.	.	.
16c>\	.	16e/LL]	.	.
16e>\JJ	.	16e/JJ	.	.
16BBBn/LL	.	4d-X^/ 4f	.	.
16BBn/	.	.	.	.
16D-X/	.	.	.	.
16G>\	.	.	.	.
16d-y>\	.	8r	.	.
16f>\JJ	.	.	.	.
=19	=19	=19	=19	=19
16CC/LL	.	[4e/	.	.
16C/	.	.	.	.
16E/	.	.	.	.
16G>\	.	.	.	.
16c>\	.	16e/LL]	.	.
16e>\JJ	.	16e/JJ	.	.
16BBBn/LL	.	4d-X/ [4f	.	.
16BBn/	.	.	.	.
16D-X/	.	.	.	.
16G>\	.	.	.	.
16d-y>\	.	16f/LL]	.	.
16f>\JJ	.	16f/JJ	.	.
=20	=20	=20	=20	=20
16BBB-X/LL	.	[4f#X/	4	.
16BB-X/	.	.	.	.
16Dn/	.	.	.	.
16A-X>\	.	.	.	.
16d>\	.	16f#/LL]	.	.
16f#y>\JJ	.	16f#/JJ	.	.
16EE-X/LL	.	4.g/	.	.
16BB-/	.	.	.	.
16E-X/	.	.	.	.
16G>\	.	.	.	.
16c#X>\	.	.	.	.
16g>\JJ	.	.	.	.
!!LO:LB:g=original
=21	=21	=21	=21	=21
16DD/LL	.	[4f#X/	.	.
16D/	.	.	.	.
16F#X/	.	.	.	.
16A>\	.	.	.	.
16d>\	.	16f#/LL]	.	.
16f#y>\JJ	.	16f#/JJ	.	.
16CC#X/LL	.	4e-X^/ 4g	.	.
16C#X/	.	.	.	.
16E-X/	.	.	.	.
16A>\	.	.	.	.
16e-X>\	.	8r	.	.
16g>\JJ	.	.	.	.
=22	=22	=22	=22	=22
16DD/LL	.	[4f#X/	.	.
16D/	.	.	.	.
16F#X/	.	.	.	.
16A>\	.	.	.	.
16d>\	.	16f#/LL]	.	.
16f#y>\JJ	.	16f#/JJ	.	[
16CC#X/LL	.	4e-X^/ 4g	.	.
16C#X/	.	.	.	.
16E-X/	.	.	.	.
16A>\	.	.	.	.
16e-y>\	.	8r	.	.
16g>\JJ	.	.	.	.
=23	=23	=23	=23	=23
16DD/LL	.	[4f#X/	.	.
16D/	.	.	.	.
16F#X/	.	.	.	.
16A>\	.	.	.	.
!	!	!	!	!LO:HP:a
16d>\	.	16f#/LL]	.	<
16f#y>\JJ	.	16f#/JJ	.	.
16CC#X/LL	.	4e-X/ [4g	.	.
16C#X/	.	.	.	.
16E-X/	.	.	.	.
16A>\	.	.	.	.
16e-y>\	.	16g/LL]	.	.
16g>\JJ	.	16g/JJ	.	.
!!LO:LB:g=original
=24	=24	=24	=24	=24
16CCn/LL	.	[4g#X/	4	[
16Cn/	.	.	.	.
16EnX/	.	.	.	.
16B->\	.	.	.	.
16en>\	.	16g#/LL]	.	.
16g#y>\JJ	.	16g#/JJ	.	.
16FF/LL	.	4.a/	.	.
16C/	.	.	.	.
16F/	.	.	.	.
16A>\	.	.	.	.
16d#X>\	.	.	.	.
16a>\JJ	.	.	.	.
=25	=25	=25	=25	=25
16EE/LL	.	[4g#X/	.	.
16E/	.	.	.	.
16G#X/	.	.	.	.
16Bn>\	.	.	.	.
16e>\	.	16g#/LL]	.	.
16g#y>\JJ	.	16g#/JJ	.	.
!	!	!LO:TX:a:i:t=poco allargando	!	!
16DD#X/LL	.	[4a/	.	.
16D#X/	.	.	.	.
16Fn/	.	.	.	.
16B>\	.	.	.	.
16fn>\	.	16a/LL]	.	.
16a>\JJ	.	16a/JJ	.	.
=26	=26	=26	=26	=26
16DDn/LL	.	[4b-X/	4	.
16Dn/	.	.	.	.
16F#X/	.	.	.	.
16c>\	.	.	.	.
16f#X>\	.	16b-/LL]	.	.
16b->\JJ	.	16b-/JJ	.	.
16DD-X/LL	.	[4bn/	.	.
16D-X/	.	.	.	.
16G/	.	.	.	.
16Bn>\	.	.	.	.
16f#>\	.	16b/LL]	.	.
16bny>\JJ	.	16b/JJ	.	.
!!LO:LB:g=original
=27	=27	=27	=27	=27
!	!	!LO:TX:a:i:t=a tempo	!	!
16CC/LL	.	[4cc/	3	ff
16C/	.	.	.	.
16A/	.	.	.	.
16fn>\	.	.	.	.
16a>\	.	16cc/LL]	.	.
16ff>\JJ	.	16ff/JJ	.	.
16CC/LL	.	[4ee/	4-5	.
16C/	.	.	.	.
16G#X/	.	.	.	.
16e>\	.	.	.	.
16g#X>\	.	16ee/LL]	.	.
16cc>\JJ	.	16cc/JJ	4	.
=28	=28	=28	=28	=28
16CC/LL	.	[4a/	3	.
16C/	.	.	.	.
16Gn/	.	.	.	.
16d#X>\	1	.	.	.
16e>\	1	16a/LL]	.	.
16ddn>\JJ	.	16ddn/JJ	.	.
16CC/LL	.	[4cc/	4-5	.
16C/	.	.	.	.
16F#X/	.	.	.	.
16dn>\	.	.	.	.
16e-X>\	.	16cc/LL]	.	.
16a>\JJ	.	16a/JJ	4	.
=29	=29	=29	=29	=29
16CC/LL	.	[4b-/	.	.
16C/	.	.	.	.
16Fn/	.	.	.	.
16c#X>\	.	.	.	.
16d>\	.	16b-/LL]	.	.
16b->\JJ	.	16b-/JJ	.	.
16CC/LL	.	4.g/	4	.
16C/	.	.	.	.
16E/	.	.	.	.
!	!	!LO:TX:a:i:t=poco-	!	!LO:HP:b=2
16cn>\	.	.	.	>
16d-X>\	.	.	.	.
16g>\JJ	.	.	.	.
!!LO:LB:g=original
=30	=30	=30	=30	=30
!	!	!LO:TX:a:i:t=a poco calando e diminuendo:ext=s:ext=ud	!	!
16CC/LL	.	[4a-X/	.	.
16C/	.	.	.	.
16E-X/	.	.	.	.
16Bn>\	.	.	.	.
16c>\	.	16a-/LL]	.	.
16a-y>\JJ	.	16a-/JJ	.	.
16CC/LL	.	4.f/	4	.
16C/	.	.	.	.
16D/	.	.	.	]
16A#X>\	1	.	.	.
16B>\	.	.	.	.
16f>\JJ	.	.	.	.
=31	=31	=31	=31	=31
*^	*	*	*	*
16CC/LL	4.ryy	.	8g~>/	.	.
16C/	.	.	.	.	.
16D/	.	.	8r	.	.
16G>\	.	.	.	.	.
16Bn>\	.	.	8r	.	.
16f>\JJ	.	.	.	.	.
16C/LL	4C\	.	8g/	.	.
16c/	.	.	.	.	.
16d/	.	.	8r	.	.
16g>\	.	.	.	.	.
16bn>\	8ryy	.	8r	.	.
16ff>\JJ	.	.	.	.	.
*v	*v	*	*	*	*
=32	=32	=32	=32	=32
16CC/LL	.	8gg\	.	.
16C/	.	.	.	.
16D/	.	8r	.	.
16G>\	.	.	.	.
16B-X>\	.	8r	.	.
16f>\JJ	.	.	.	.
16C/LL	.	8g/	.	.
16c/	.	.	.	.
16d/	.	8r	.	.
16g>\	.	.	.	.
16b-X>\	.	8r	.	.
16ff>\JJ	.	.	.	.
!!LO:PB:g=original
=33	=33	=33	=33	=33
16CC/LL	.	8gg\	.	.
16C/	.	.	.	.
16D-X/	.	8r	.	.
16G>\	.	.	.	.
16B->\	.	8r	.	.
16f>\JJ	.	.	.	.
16C/LL	.	8g/	.	.
16c/	.	.	.	.
16d-X/	.	8r	.	.
16g>\	.	.	.	.
16b->\	.	8r	.	.
16ff>\JJ	.	.	.	.
=34	=34	=34	=34	=34
16CC/LL	.	8gg\	.	.
16C/	.	.	.	.
16E/	.	8r	.	.
16G>\	.	.	.	.
16c>\	.	8r	.	.
16e>\JJ	.	.	.	.
!	!	!LO:TX:a:i:t=rit.	!	!
16CC/LL	.	4.g#X~/	5	.
16C/	.	.	.	.
16E/	.	.	.	.
16G#X>\	.	.	.	.
16c>\	.	.	.	.
16e>\JJ	.	.	.	.
=35	=35	=35	=35	=35
!	!	!LO:TX:b:i:t=dolce	!	!
!	!	!LO:TX:a:b:B:t=Tempo I.	!	!
16FF/LL	.	[4a/	.	.
16C/	.	.	.	.
16A/	.	.	.	.
16c>\	.	.	.	.
16f>\	.	16a/LL]	.	.
16dd>\JJ	.	16dd/JJ	.	.
16FF#X/LL	.	[4cc/	.	.
16E-X/	.	.	.	.
16A/	.	.	.	.
16c>\	.	.	.	.
16e-X>\	.	16cc/LL]	.	.
16a>\JJ	.	16a/JJ	.	.
!!LO:LB:g=original
=36	=36	=36	=36	=36
16GG/LL	.	[4b-/	.	.
16D/	.	.	.	.
16B-/	.	.	.	.
16d>\	2	.	.	.
16f>\	1	16b-/LL]	.	.
16ff>\JJ	.	16ff/JJ	.	.
16GG#X/LL	.	[4ee/	4-5	.
16F/	.	.	.	.
16Bn/	.	.	.	.
16e>\	.	.	.	.
16f>\	.	16ee/LL]	.	.
16dd>\JJ	.	16dd/JJ	5	.
=37	=37	=37	=37	=37
!	!	!	!	!LO:HP:a
16AA/LL	.	[4bn/	3	<
16F/	.	.	.	.
16c/	.	.	.	.
16f>\	.	.	.	.
16a>\	.	16b/LL]	.	.
16cc>\JJ	.	16cc/JJ	.	.
16AA-X/LL	.	[4cc#X/	3	.
16F/	.	.	.	.
16Bn/	.	.	.	.
16f>\	.	.	.	.
16bn>\	.	16cc#/LL]	.	[
16dd>\JJ	.	16dd/JJ	.	.
=38	=38	=38	=38	=38
16GG/LL	.	[4dd#X/	3	.
16G/	.	.	.	.
16B-X/	.	.	.	.
!	!	!	!	!LO:HP:a
16g>\	.	.	.	>
16b-X>\	.	16dd#/LL]	.	.
16ee>\JJ	.	16ee/JJ	.	.
!	!	!LO:TX:a:i:t=poco rit.	!	!
16GG-X/LL	.	4.bb-~/	.	]
16G-X/	.	.	.	.
16c/	.	.	.	.
16b->\	.	.	.	.
16ee>\	.	.	.	.
16bb->\JJ	.	.	.	.
!!LO:LB:g=original
=39	=39	=39	=39	=39
!	!	!LO:TX:a:i:t=a tempo	!	!
16FF/LL	.	[4aa/	4	.
16C/	.	.	.	.
16A/	.	.	.	.
16a>\	.	.	.	.
16ff>\	.	16aa/LL]	.	.
16ddd>\JJ	.	16ddd/JJ	.	.
16FF#X/LL	.	[4ccc/	4-5	.
16E-X/	.	.	.	.
16A/	.	.	.	.
16a>\	.	.	.	.
16ee-X>\	.	16ccc/LL]	.	.
16aa>\JJ	.	16aa/JJ	.	.
=40	=40	=40	=40	=40
16GG/LL	.	[4bb-/	.	.
16E-X/	.	.	.	.
16B-/	.	.	.	.
16b->\	.	.	.	.
16ee-X>\	.	16bb-/LL]	.	.
16gg>\JJ	.	16gg/JJ	.	.
!	!	!	!	!LO:HP:a
16BB-/LL	.	[4ee/	3	<
16G/	.	.	.	.
16d-X/	.	.	.	.
16g>\	.	.	.	.
16dd-X>\	.	16ee/LL]	.	.
16een>\JJ	.	16een/JJ	.	.
=41	=41	=41	=41	=41
16AA-X/LL	.	[4ff/	.	.
16F/	.	.	.	.
16d-X/	.	.	.	.
16f>\	.	.	.	.
16a-X>\	.	16ff/LL]	.	[
16dd-X>\JJ	.	16dd-X/JJ	4	.
16GG/LL	.	[4cc/	3-5	.
*	*below	*	*	*
16F/	2	.	.	.
16G/	.	.	.	.
16dn>\	.	.	.	.
16f>\	.	16cc/LL]	.	.
16bn>\JJ	.	16bn/JJ	.	.
!!LO:LB:g=original
=42	=42	=42	=42	=42
!	!	!	!	!LO:HP:a:t=dim. e rit.:ext=s
16CC/LL	.	4.b-X/	3-5	>
16GG/	.	.	.	.
16D/	.	.	.	.
16B->\	.	.	.	.
16d>\	.	.	.	.
16f>\JJ	.	.	.	.
16CC/LL	.	[4a/	5	.
16C/	.	.	.	.
16E/	2	.	.	.
16B->\	.	.	.	.
16c>\	.	16a/LL]	.	.
16e>\JJ	.	16e/JJ	.	.
=43	=43	=43	=43	=43
!	!	!LO:TX:a:i:t=a tempo	!	!
16FF/LL	.	[4f/	.	.
16C/	.	.	.	.
16A/	.	.	.	.
16c>\	.	.	.	.
16f>\	.	16f/LL]	2	.
16b->\JJ	.	16b-/JJ	.	.
!	!	!LO:TX:a:i:t=poco cresc. ed affrettando	!	!
16FF/LL	.	[4a/	4	.
16E-X/	.	.	.	.
16A/	.	.	.	.
16c>\	.	.	.	.
16e-X>\	.	16a/LL]	.	.
16f#X>\JJ	.	16f#X/JJ	3	.
=44	=44	=44	=44	=44
16FF/LL	.	[4g/	.	.
16D/	.	.	.	.
16F/	.	.	.	.
16Bn>\	.	.	.	.
16d>\	.	16g/LL]	.	.
16cc>\JJ	.	16cc/JJ	.	.
16FF/LL	.	[4bn/	4-5	.
16D-X/	.	.	.	.
16F/	.	.	.	.
16B>\	.	.	.	.
16f>\	.	16b/LL]	.	.
16g#X>\JJ	.	16g#X/JJ	.	.
!!LO:LB:g=original
=45	=45	=45	=45	=45
16FF/LL	.	[4a/	4	.
16C/	.	.	.	.
16A/	.	.	.	.
16c>\	.	.	.	.
16f>\	.	16a/LL]	.	.
16dd>\JJ	.	16dd/JJ	.	.
16FF/LL	.	[4cc#X/	4-5	.
16E-X/	.	.	.	.
16A/	.	.	.	.
16e-X>\	.	.	.	.
16g-X>\	.	16cc#/LL]	.	.
16a>\JJ	.	16a/JJ	.	.
=46	=46	=46	=46	=46
16FF/LL	.	[4b-/	.	.
16D/	.	.	.	.
16B-/	.	.	.	.
16d>\	.	.	.	.
16f>\	.	16b-/LL]	.	.
!	!	!LO:TX:a:i:t=calando	!	!
16gg>\JJ	.	16gg/JJ	.	.
16FF/LL	.	[4ff/	4-5	.
16D-X/	.	.	.	.
16A-X/	.	.	.	.
16f>\	.	.	.	.
16a-X>\	.	16ff/LL]	.	.
16bn>\JJ	.	16bn/JJ	3	.
=47	=47	=47	=47	=47
*ped	*	*	*	*
!	!	!	!	!LO:HP:b=2
16FF/LL	.	[4cc/	.	>
16C/	.	.	.	.
16An/	.	.	.	.
16f>\	.	.	.	.
16an>\	.	16cc/LL]	.	.
!	!	!LO:TX:a:i:t=accel.	!	!
16dd>\JJ	.	16dd/JJ	.	.
16F/LL	.	8cc/	.	.
16c/	.	.	.	.
16a/	.	16r	.	.
16cc>\	.	16ryy	.	]
*	*above	*	*	*
16ff>\	1	8ryy	.	.
16ddd>\JJ	2	.	.	.
*clefG2	*	*	*	*
!!LO:LB:g=original
=48	=48	=48	=48	=48
!LO:TX:b:i:t=perdendosi	!	!	!	!
16f/LL	.	8ccc\	.	.
*	*below	*	*	*
16ee-X/	2	.	.	.
16aa/	.	8.ryy	.	.
*8va	*	*	*	*
16ccc>\	.	.	.	.
16fff>\	.	.	.	.
16dddd>\JJ	.	16ryy	.	.
8cccc>\	.	8ryy	.	.
*X8va	*	*	*	*
8r	.	8r	.	.
8r	.	8r	.	.
*clefF4	*	*	*	*
=49	=49	=49	=49	=49
*^	*	*	*	*
!	!	!	!LO:TX:b:i:t=espress.	!	!
!	!	!	!LO:TX:a:i:t=ad lib. stretto	!	!
8r	8ryy	.	8r	.	.
*Xped	*	*	*	*	*
(<4f/	8e-X~\L	.	(8a~\L 8gg	.	.
.	8d~\J	.	8b-~\J 8ff	3	<
8d-X~<\L 8g-X	4.ryy	2 4	8b-~\L 8een 8bb-	.	.
8c~<\ 8f	.	1 5	8a~\ 8ff 8aa	.	.
8Bn~<\J 8gn	.	4	8ddn~\J 8ff 8dddn	.	[[
*v	*v	*	*	*	*
=50	=50	=50	=50	=50
*ped	*	*	*	*
4.B-X\) 4.g#X	.	4.dd-X\) 4.ff 4.ddd-X	.	.
4.r	.	4.r	.	.
*Xped	*	*	*	*
=51	=51	=51	=51	=51
*ped	*	*	*	*
!	!	!LO:TX:a:i:t=rall.	!	!
4.C\ 4.G#X	.	4.c/ 4.e 4.g#X 4.cc	.	pp
4.r	.	4.r	.	.
*Xped	*	*	*	*
=52	=52	=52	=52	=52
*ped	*	*	*	*
2.FF:/ 2.C: 2.A:	.	2.c:/ 2.f: 2.a: 2.cc:	.	.
*Xped	*	*	*	*
==	==	==	==	==
*-	*-	*-	*-	*-
!!!system-decoration: {(s1,s2)}
!!!RDF**kern: < = below
!!!RDF**kern: > = above
!!!RDF**kern: N = linked
!!!ENC: Berenika Jozajtis
!!!END: 2023-10-22
!!!EED: Marta Chmielewska
!!!EEV: 2023-10-26
